svgs/google_sheets.svg

<svg xmlns="http://www.w3.org/2000/svg" width="24" height="24" fill="none" viewBox="0 0 24 24"><path fill="#000" fill-rule="evenodd" d="M6 2h8l6 6v12c0 1.1-.9 2-2 2H5.99C4.89 22 4 21.1 4 20l.01-16c0-1.1.89-2 1.99-2m7 1.5V9h5.5zM7.5 19v-8h9v8zm7.5-6.5h-2.25v1.75H15zm-6 0h2.25v1.75H9zm0 3.25h2.25v1.75H9zm6 1.75h-2.25v-1.75H15z" clip-rule="evenodd"/></svg>

<svg width="24" height="24" viewBox="0 0 24 24" fill="none" xmlns="http://www.w3.org/2000/svg">
<path fill-rule="evenodd" clip-rule="evenodd" d="M6 2H14L20 8V20C20 21.1 19.1 22 18 22H5.99C4.89 22 4 21.1 4 20L4.01 4C4.01 2.9 4.9 2 6 2ZM13 3.5V9H18.5L13 3.5ZM7.5 19V11H16.5V19H7.5ZM15 12.5H12.75V14.25H15V12.5ZM9 12.5H11.25V14.25H9V12.5ZM9 15.75H11.25V17.5H9V15.75ZM15 17.5H12.75V15.75H15V17.5Z" fill="black"/>
</svg>
